src/pos-icons/home-roof.svg

<svg height="24" viewBox="0 0 24 24" width="24" xmlns="http://www.w3.org/2000/svg"><path d="m19 16h3l-10-9-10 9h3l7-6.31zm-12-7.19v-1.81h-3v4.5z"/></svg>

<?xml version="1.0" encoding="UTF-8"?><!DOCTYPE svg PUBLIC "-//W3C//DTD SVG 1.1//EN" "http://www.w3.org/Graphics/SVG/1.1/DTD/svg11.dtd"><svg xmlns="http://www.w3.org/2000/svg" xmlns:xlink="http://www.w3.org/1999/xlink" version="1.1" id="mdi-home-roof" width="24" height="24" viewBox="0 0 24 24"><path d="M19 16H22L12 7L2 16H5L12 9.69L19 16M7 8.81V7H4V11.5L7 8.81Z" /></svg>
